icon-svg/garbage-residual.svg

<?xml version="1.0" encoding="UTF-8" standalone="no"?>
<svg
   id="Livello_1"
   data-name="Livello 1"
   viewBox="0 0 24 24"
   version="1.1"
   width="24"
   height="24"
   xmlns="http://www.w3.org/2000/svg"
   xmlns:svg="http://www.w3.org/2000/svg">
  <path id="Colore_riempimento_1" fill="#44739e" data-name="Colore riempimento 1" class="cls-1"
     d="M 9.792,4.892 A 6.43033,6.43033 0 0 1 6.49532,1.3675 C 6.42279,1.15563 6.50403,1.0865 6.77255,1.04539 a 3.11246,3.11246 0 0 1 1.40864,0.16129 6.7457,6.7457 0 0 1 0.724,0.26794 1.50531,1.50531 0 0 0 1.3035,-0.02691 c 0.34213,-0.16124 0.675,-0.33514 1.02912,-0.48009 a 2.17986,2.17986 0 0 1 1.74019,-0.0141 5.25385,5.25385 0 0 0 3.37814,0.26487 7.18411,7.18411 0 0 1 0.85488,-0.14078 c 0.51624,-0.05156 0.66142,0.08435 0.49458,0.44069 a 7.3887,7.3887 0 0 1 -2.78135,3.161 c -0.07491,0.048 -0.13666,0.10747 -0.27742,0.21972 a 2.68725,2.68725 0 0 1 0.31665,0.15712 18.15819,18.15819 0 0 1 6.00614,6.18439 8.48529,8.48529 0 0 1 0.95322,3.43583 c 0.08259,1.10522 0.14248,2.213 0.14022,3.31962 a 5.44013,5.44013 0 0 1 -0.65612,2.60749 c -0.73644,1.36444 -2.1488,2.06491 -4.04171,2.28172 a 11.46879,11.46879 0 0 1 -1.278,0.05567 c -2.678,0.0047 -5.35619,0.013 -8.03408,-0.0021 A 6.53492,6.53492 0 0 1 4.27515,21.91334 3.97446,3.97446 0 0 1 2.68581,19.51689 11.07062,11.07062 0 0 1 2.51638,15.578 20.05784,20.05784 0 0 1 2.87276,12.97654 10.56879,10.56879 0 0 1 5.759,8.22362 21.63236,21.63236 0 0 1 9.70919,4.96227 0.93078,0.93078 0 0 0 9.792,4.892 Z m 2.63429,4.96753 a 13.84086,13.84086 0 0 0 0.43418,-4.7993 C 12.85,4.89892 12.745,4.845 12.53575,4.8527 A 4.85022,4.85022 0 0 1 11.72734,4.84946 2.09814,2.09814 0 0 0 9.83643,5.51932 10.62907,10.62907 0 0 0 6.48014,12.38793 c -0.03088,0.31046 -0.00421,0.6241 -0.00421,1.00448 0.03368,-0.10942 0.04927,-0.1545 0.06135,-0.2001 A 17.07348,17.07348 0 0 1 8.3503,8.775 10.393,10.393 0 0 1 11.55162,5.265 C 11.6378,5.20779 11.73291,5.15806 11.82386,5.10485 l 0.11986,0.0227 z M 12.95051,4.887 C 17.003,8.3469 18.58155,12.5241 19.43,16.92325 A 3.73167,3.73167 0 0 0 19.44,16.3969 C 19.37485,15.51738 19.34507,14.63497 19.22585,13.75941 A 13.19237,13.19237 0 0 0 16.95635,7.89341 11.59172,11.59172 0 0 0 14.34524,5.2163 1.60024,1.60024 0 0 0 12.95051,4.887 Z" />
</svg>

<svg xmlns="http://www.w3.org/2000/svg" data-name="Livello 1" viewBox="0 0 24 24"><path fill="#44739e" d="M9.792 4.892a6.43 6.43 0 0 1-3.2967-3.5245c-.0725-.2119.0087-.281.2772-.3221a3.11 3.11 0 0 1 1.4087.1613 6.8 6.8 0 0 1 .724.268 1.505 1.505 0 0 0 1.3035-.027c.3421-.1612.675-.3351 1.0291-.48A2.18 2.18 0 0 1 12.978.9534a5.254 5.254 0 0 0 3.3781.2649 7.2 7.2 0 0 1 .855-.1408c.5162-.0515.6613.0844.4945.4407a7.39 7.39 0 0 1-2.7814 3.161c-.0749.048-.1366.1075-.2774.2197a2.7 2.7 0 0 1 .3167.1571 18.16 18.16 0 0 1 6.0061 6.1844 8.485 8.485 0 0 1 .9532 3.4359c.0826 1.1052.1425 2.213.1403 3.3196a5.44 5.44 0 0 1-.6562 2.6075c-.7364 1.3644-2.1488 2.0649-4.0417 2.2817a11.5 11.5 0 0 1-1.278.0557c-2.678.0047-5.3562.013-8.034-.0021a6.535 6.535 0 0 1-3.778-1.0255 3.975 3.975 0 0 1-1.5894-2.3964 11.07 11.07 0 0 1-.1694-3.9389 20.1 20.1 0 0 1 .3564-2.6015A10.57 10.57 0 0 1 5.759 8.2236a21.63 21.63 0 0 1 3.9502-3.2613.9.9 0 0 0 .0828-.0703m2.6343 4.9675a13.84 13.84 0 0 0 .4342-4.7993c-.0105-.1613-.1155-.2152-.3247-.2075a4.85 4.85 0 0 1-.8085-.0032 2.098 2.098 0 0 0-1.8909.6698 10.63 10.63 0 0 0-3.3563 6.8686c-.0308.3105-.0042.6241-.0042 1.0045.0337-.1094.0493-.1545.0614-.2a17.07 17.07 0 0 1 1.813-4.4174 10.39 10.39 0 0 1 3.2013-3.51c.0862-.0572.1813-.107.2723-.1601l.1198.0227zm.5242-4.9725c4.0525 3.4599 5.631 7.6371 6.4795 12.0362a3.7 3.7 0 0 0 .01-.5263c-.0652-.8795-.095-1.762-.2142-2.6375a13.19 13.19 0 0 0-2.2694-5.866 11.59 11.59 0 0 0-2.6112-2.6771 1.6 1.6 0 0 0-1.3947-.3293" class="cls-1" data-name="Colore riempimento 1"/></svg>
